!!!COM:	la Rue, Pierre de
!!!CDT:	~1452///-1518/11/20
!!!OPR:	Missa de Sancto Job
!!!ONM:	5
!!!OTL:	Agnus Dei
!!!AGN:	Mass; Agnus Dei
!!!SCT:	Rue1013e
!!!SCA:	Rue1013e
!!!voices-OPR:	4
!!!voices:	4
**kern	**kern	**kern	**kern
*Ivox	*Ivox	*Ivox	*Ivox
*I"Bassus	*I"Tenor	*I"Contratenor	*I"Discantus
*I'B	*I'T	*I'Ct	*I'D
*staff4	*staff3	*staff2	*staff1
*>[A,B]	*>[A,B]	*>[A,B]	*>[A,B]
*>A	*>A	*>A	*>A
*clefF4	*clefGv2	*clefGv2	*clefG2
*k[b-]	*k[b-]	*k[b-]	*k[b-]
*M3/1	*M3/1	*M3/1	*M3/1
*met(O)	*met(O)	*met(O)	*met(O)
!!section: Agnus Dei I
!!!OMD: Agnus Dei I
!LO:TX:X=-40:Z=8:t=Canon at the upper fifth (one breve)	!	!	!
=1-	=1-	=1-	=1-
0.r	0.r	0G	0g
.	.	1G	2.b-\
.	.	.	4a/
=2	=2	=2	=2
0.r	0.r	0B-	2g/
.	.	.	2f/
.	.	.	2g/
.	.	.	1b-
.	.	1G	.
.	.	.	4a/
.	.	.	4g/
=3	=3	=3	=3
0.r	0.r	0F	2a/
.	.	.	2f/
.	.	.	2a/
.	.	.	2b-\
.	.	2A/	2cc\
.	.	2B-\	[2dd\
=4	=4	=4	=4
0.r	0.r	1c	2dd\]
.	.	.	2.cc\
.	.	1d	.
.	.	.	4a/
.	.	.	2b-\
.	.	2.c\	2a/
.	.	.	[2cc\
.	.	4d\	.
=5	=5	=5	=5
0.r	0.r	2e\	2cc\]
.	.	1f	4b-\
.	.	.	4a/
.	.	.	1g
.	.	2e\	.
.	.	1f	2r
.	.	.	2f/
=6	=6	=6	=6
0.r	0.r	2r	2.a/
.	.	2F/	.
.	.	.	4b-\
.	.	2A/	4cc\
.	.	.	4b-\
.	.	2B-\	4g/
.	.	.	4b-\
.	.	4c\	2a/
.	.	4B-\	.
.	.	4G/	[2g/
.	.	4B-\	.
=7	=7	=7	=7
0.r	0.r	1A	2g/]
.	.	.	2f/
.	.	3%2GV	2g/
.	.	.	2e/
.	.	3c\Z	.
.	.	3d\V	2.f/
.	.	3.B-\	.
.	.	.	4g/
.	.	6A/Z	.
=8	=8	=8	=8
0C	0.r	1c	0e
.	.	2r	.
.	.	2c\	.
1C	.	2e\	1r
.	.	2f\	.
=9	=9	=9	=9
0E-	0G	0g	2r
.	.	.	2g/
.	.	.	1b-
1C	1G	1e	1cc
=10	=10	=10	=10
1BB-	0B-	0d	1dd
1D	.	.	2dd\
.	.	.	1b-
1E	1G	1r	.
.	.	.	4a/
.	.	.	4g/
=11	=11	=11	=11
0F	1F	1c	2a/
.	.	.	2.cc\
.	1A	1f	.
.	.	.	4b-\
.	.	.	2a/
1G	1B-	2e\	2g/
.	.	2d\	2b-\
=12	=12	=12	=12
0.r	0c	2c\	2a/
.	.	2.e\	1cc
.	.	4f\	.
.	.	1g	2b-\
.	1d	.	1a
.	.	2f#i\	.
=13	=13	=13	=13
1G	0.r	1g	2g/
.	.	.	2b-\
2F\	.	0d	2a/
2.G\	.	.	2.b-\
4F\	.	.	4a/
4D\	.	.	4f/
4E\	.	.	4g/
=14	=14	=14	=14
2.F\	1d	2r	2a/
.	.	2A/	2f/
4D\	.	.	.
2E-\	2c\	2G/	2g/
2F\	2.d\	2A/	2f/
1D	.	2.F/	2a/
.	4c\	.	.
.	4A/	.	4g/
.	4B-\	4G/	4f/
=15	=15	=15	=15
1C	2.c\	2G/	2e/
.	.	2c\	1a
.	4A/	.	.
1r	2B-\	2d\	.
.	2c\	2e\	2.g/
1r	1A	1c	.
.	.	.	4f#i/
.	.	.	2f#i/
=16	=16	=16	=16
2r	1G	2r	1g
2C/	.	2e\	.
2C/	1r	2e\	1r
2.C/	.	2.g\	.
.	1r	.	1r
4D\	.	4f\	.
4E\	.	4e\	.
4F\	.	4d\	.
=17	=17	=17	=17
2G\	2r	2e\	2r
2.G\	2G/	2d\	2b-\
.	2G/	2B-\	2b-\
4F\	.	.	.
4E\	2.G/	2B-\	1b-
4D\	.	.	.
1E	.	1G	.
.	4A/	.	.
.	4B-\	.	4a/
.	4c\	.	4g/
=18	=18	=18	=18
1D	2d\	1A	2.f/
.	2.d\	.	.
.	.	.	4e/
1r	.	1r	4f/
.	4c\	.	4e/
.	4B-\	.	1a
.	4A/	.	.
1r	1B-	1d	.
.	.	.	2g/
=19	=19	=19	=19
1D	1A	1.f	0.a
0F	1r	.	.
.	.	4e\	.
.	.	4d\	.
.	1r	1c	.
=20	=20	=20	=20
1D	1A	1d	1r
0C	0c	0e-i	1r
.	.	.	2r
.	.	.	2g/
=21	=21	=21	=21
1D	1A	1d	4f/
.	.	.	4e/
.	.	.	2f/
2BB-/	0G	2d\	2.g/
2.C/	.	4e-i\	.
.	.	4d\	4f/
.	.	4c\	2e/
4GG/	.	4B-\	.
2BB-/	.	2d\	2d/
=22	=22	=22	=22
1AA	1A	4c\	1a
.	.	4B-\	.
.	.	2c\	.
1r	2F/	1d	2a/
.	2.G/	.	4g/
.	.	.	4f/
1r	.	1r	4e/
.	4D/	.	4d/
.	2F/	.	[2d/
=23	=23	=23	=23
1r	1E	1g	2d/]
.	.	.	2c/
1D	1r	2.f\	2d/
.	.	.	2.f/
.	.	4e\	.
2.F\	1r	2d\	.
.	.	.	4g/
.	.	2c\	[2a/
4E\	.	.	.
=24	=24	=24	=24
2D\	1r	2d\	4a/]
.	.	.	4g/
2C/	.	2G/	4f/
.	.	.	4e/
1D	1A	4F/	1f
.	.	4E/	.
.	.	2F/	.
2C/	2.c\	2G/	2e/
[2F\	.	2F/	[2a/
.	4B-\	.	.
=25	=25	=25	=25
2F\]	2A/	1c	4a/]
.	.	.	4f/
2E\	2G/	.	2g/
2.F\	1A	1r	2c/
.	.	.	2.cc\
4E\	.	.	.
2C/	2G/	2r	.
.	.	.	4b-\
2E\	[2c\	2G/	4a/
.	.	.	4g/
=26	=26	=26	=26
1D	2c\]	2A/	1f
.	2B-\	2F/	.
2C/	2.c\	2G/	2e/
2.F\	.	4A/	1a
.	4B-\	4B-\	.
.	2G/	4c\	.
4E\	.	4d\	.
2G\	2B-\	4e-i\	[2g/
.	.	4d\	.
=27	=27	=27	=27
1D	1A	2.d\	2g/]
.	.	.	2f#i/
.	.	4c\	.
[0GGl	[0Gl	4B-\	[0gl
.	.	4A/	.
.	.	1B-	.
.	.	2G/	.
=28	=28	=28	=28
0.GG]	0.G]	0.dl	0.g]
!!LO:LB:i:g=z
=29||	=29||	=29||	=29||
*>B	*>B	*>B	*>B
*clefF4	*clefGv2	*clefGv2	*clefG2
*k[b-]	*k[b-]	*k[b-]	*k[b-]
*M2/1	*M2/1	*M2/1	*M2/1
*met(C|)	*met(C|)	*met(C|)	*met(C|)
!!section: Agnus Dei II
!!!OMD: Agnus Dei II
!	!LO:TX:Z=14:t=Canon at the lower fifth (two breves)	!	!
0r	0r	1d	0a
.	.	2c\	.
.	.	[2d\	.
=30	=30	=30	=30
0r	0r	2d\]	1a
.	.	4c\	.
.	.	4B-\	.
.	.	1A	1a
=31	=31	=31	=31
0r	0r	1G	1b-
.	.	2r	2a/
.	.	2d\	[2b-\
=32	=32	=32	=32
0r	0r	1d	2b-\]
.	.	.	4a/
.	.	.	4g/
.	.	1d	1a
=33	=33	=33	=33
0r	0r	1e	2.g/
.	.	.	4a/
.	.	2d\	2b-\
.	.	[2e\	2cc\
=34	=34	=34	=34
0r	0r	2e\]	2g/
.	.	4d\	1cc
.	.	4c\	.
.	.	1d	.
.	.	.	2bni\
=35	=35	=35	=35
0r	0r	0c	2.cc\
.	.	.	4b-\
.	.	.	2g/
.	.	.	2a/
=36	=36	=36	=36
0r	0r	1r	2a/
.	.	.	4g/
.	.	.	4f/
.	.	1c	2g/
.	.	.	2a/
=37	=37	=37	=37
0r	0r	2.c\	1e
.	.	4B-\	.
.	.	2G/	2r
.	.	[2A/	2e/
=38	=38	=38	=38
0r	0r	2A/]	1e
.	.	4G/	.
.	.	4F/	.
.	.	2G/	1e
.	.	2A/	.
=39	=39	=39	=39
0r	0A	1D	1f
.	.	1r	2e/
.	.	.	[2f/
=40	=40	=40	=40
0r	1A	0r	2f/]
.	.	.	4e/
.	.	.	4d/
.	1A	.	1e
=41	=41	=41	=41
0D	1B-	1r	1d
.	2A/	1d	2r
.	[2B-\	.	2f/
=42	=42	=42	=42
1D	2B-\]	1d	1f
.	4A/	.	.
.	4G/	.	.
1D	1A	1d	1f
=43	=43	=43	=43
1E-i	1G	2.B-\	1g
.	.	4c\	.
2D\	1r	2d\	2f/
[2E-i\	.	[2G/	[2g/
=44	=44	=44	=44
2E-\]	1r	2G/]	2g/]
4D\	.	1c	4f/
4C/	.	.	4e/
1D	1F	.	1f
.	.	2Bni\	.
=45	=45	=45	=45
1C	1G	0c	0e
1r	1A	.	.
=46	=46	=46	=46
1r	2B-\	0d	1r
.	2G/	.	.
1BB-	1B-	.	1d
=47	=47	=47	=47
1C	1A	1r	1e
1D	1A	1d	1f
=48	=48	=48	=48
2E-i\	0G	1B-	1g
2C/	.	.	.
1E-i	.	2G/	1cc
.	.	[2G/	.
=49	=49	=49	=49
1D	1r	2G/]	2b-\
.	.	4F/	2a/
.	.	4E/	.
1D	1B-	1F	4b-\
.	.	.	4a/
.	.	.	4g/
.	.	.	4f/
=50	=50	=50	=50
0C	1.c	0G	2e/
.	.	.	2c/
.	.	.	2.e/
.	4B-\	.	.
.	4A/	.	4f/
=51	=51	=51	=51
1r	2.B-\	1r	2g/
.	.	.	1a
.	4A/	.	.
1E	1B-	1G	.
.	.	.	2g/
=52	=52	=52	=52
1.F	0A	2c\	0a
.	.	2c\	.
.	.	2.A/	.
4E\	.	.	.
4D\	.	4B-\	.
=53	=53	=53	=53
2.E\	0r	2c\	0r
.	.	1d	.
4D\	.	.	.
1E	.	.	.
.	.	2c#i\	.
=54	=54	=54	=54
0D	1A	2d\	0a
.	.	1f	.
.	1F	.	.
.	.	4e\	.
.	.	4d\	.
=55	=55	=55	=55
0r	2.E/	4e\	1g
.	.	4d\	.
.	.	4c\	.
.	4D/	4B-\	.
.	1E	1c	1g
=56	=56	=56	=56
1D	1D	0d	1f
1BB-	[1G	.	1g
=57	=57	=57	=57
2.AA/	1G]	0r	1a
4GG/	.	.	.
1AA	1F#i	.	1cc
=58	=58	=58	=58
1GG	[0G	1d	1b-
[1C	.	2e\	2g/
.	.	[2e\	[2g/
=59	=59	=59	=59
1C]	0G]	2e\]	2g/]
.	.	4d\	4f/
.	.	4c\	4e/
1BB-	.	1d	2d/
.	.	.	[2g/
=60	=60	=60	=60
[0C	1.E	2c\	2g/]
.	.	1g	1e
.	2F/	[2e\	2c/
=61	=61	=61	=61
0C]	2G/	2e\]	1c
.	1A	2c\	.
.	.	1c	2r
.	2G/	.	2cc\
=62	=62	=62	=62
1.AA	[0A	2r	2.cc\
.	.	1c	.
.	.	.	4b-\
.	.	.	2a/
2BB-/	.	2d\	4g/
.	.	.	4f/
=63	=63	=63	=63
2C/	0A]	2e\	2e/
1D	.	2f\	2d/
.	.	4e\	1a
.	.	4d\	.
2C#i/	.	2e\	.
=64	=64	=64	=64
[0D	1D	[0d	2.f/
.	.	.	4g/
.	2.F/	.	4a/
.	.	.	4b-\
.	.	.	[2a/
.	4G/	.	.
=65	=65	=65	=65
0D]	2A/	0d]	2a/]
.	2B-\	.	1g
.	1A	.	.
.	.	.	2f#i/
=66	=66	=66	=66
1GG	0G	2.B-\	1g
.	.	4c\	.
2.BB-/	.	4d\	1r
.	.	4e-i\	.
.	.	[2d\	.
4C/	.	.	.
=67	=67	=67	=67
2D\	2r	2d\]	0r
2E-i\	2G/	1c	.
1D	4F/	.	.
.	4E/	.	.
.	2F/	2Bni\	.
=68	=68	=68	=68
0C	2.E/	0c	2r
.	.	.	2.g/
.	4F/	.	.
.	2G/	.	.
.	.	.	4f/
.	2A/	.	[2e/
=69	=69	=69	=69
2r	2E/	0r	2e/]
2C/	1A	.	4d/
.	.	.	4c/
4BB-/	.	.	1d
4AA/	.	.	.
2BB-/	2G/	.	.
=70	=70	=70	=70
2.AA/	[0A	2r	2c/
.	.	2e\	2.cc\
4BB-/	.	.	.
2C/	.	2e\	.
.	.	.	4b-\
2D\	.	2f\	[2a/
=71	=71	=71	=71
2AA/	0A]	2e\	2a/]
1D	.	2d\	4g/
.	.	.	4f/
.	.	1e	2e/
2C#i/	.	.	2a/
=72	=72	=72	=72
[0D	2D/	2.d\	2f/
.	2d\	.	2b-\
.	.	4e\	.
.	2d\	4f\	4a/
.	.	4g\	4g/
.	2d\	[2f\	[2a/
=73	=73	=73	=73
0D]	2B-\	2f\]	2a/]
.	4A/	2d\	1g
.	4G/	.	.
.	1A	2.d\	.
.	.	.	2f#i/
.	.	8c\L	.
.	.	8d\J	.
=74	=74	=74	=74
[0GGl	[0Gl	2e-i\	[0gl
.	.	2d\	.
.	.	1e-i	.
=75	=75	=75	=75
0GG]	0G]	0dl	0g]
==	==	==	==
*-	*-	*-	*-
!!!RDF**kern: l=long note in original notation
!!!RDF**kern: i=editorial accidental
!!!RDF**kern: V=start of tuplet marker
!!!RDF**kern: Z=end of tuplet marker
!!!ENC:	Megan K. Eagen 2013/01/20
!!!END:	2013/01/20/
!!!EED:	Jesse Rodin
!!!EEV:	2013/08/04/
!!!ONB:	Translated from MusicXML and edited on 2013/08/04/ by Craig Sapp
!!muse2ps: T^@{OPR}^u^@{ONM}{. }@{OTL}^C^@{COM}^i2I150v85,85,85,150c160
